svg/fluentui-system-icons/ic_fluent_braces_checkmark_16_regular.svg

<svg xmlns="http://www.w3.org/2000/svg" width="16" height="16"><path d="M4.5 13.5a.5.5 0 0 1-.5.5 2 2 0 0 1-2-2V9a.5.5 0 0 0-.5-.5.5.5 0 0 1 0-1A.5.5 0 0 0 2 7V4a2 2 0 0 1 2-2 .5.5 0 0 1 0 1 1 1 0 0 0-1 1v3c0 .384-.144.735-.382 1 .238.265.382.616.382 1v3a1 1 0 0 0 1 1 .5.5 0 0 1 .5.5Zm10-6A.5.5 0 0 1 14 7V4a2 2 0 0 0-2-2 .5.5 0 0 0 0 1 1 1 0 0 1 1 1v3c0 .384.144.735.382 1A1.497 1.497 0 0 0 13 9v3a1 1 0 0 1-1 1 .5.5 0 0 0 0 1 2 2 0 0 0 2-2V9a.5.5 0 0 1 .5-.5.5.5 0 0 0 0-1ZM12 8a4 4 0 1 1-8 0 4 4 0 0 1 8 0Zm-1 0c0-1.654-1.346-3-3-3S5 6.346 5 8s1.346 3 3 3 3-1.346 3-3ZM9.146 6.646 7.5 8.292l-.646-.646a.5.5 0 0 0-.707.707l1 1a.5.5 0 0 0 .708 0l2-2a.5.5 0 0 0-.707-.707h-.002Z"/></svg>

<svg width="16" height="16" viewBox="0 0 16 16" fill="none" xmlns="http://www.w3.org/2000/svg">
<path d="M4.5 13.5C4.5 13.776 4.276 14 4 14C2.895 14 2 13.105 2 12V9C2 8.724 1.776 8.5 1.5 8.5C1.224 8.5 1 8.276 1 8C1 7.724 1.224 7.5 1.5 7.5C1.776 7.5 2 7.276 2 7V4C2 2.895 2.895 2 4 2C4.276 2 4.5 2.224 4.5 2.5C4.5 2.776 4.276 3 4 3C3.448 3 3 3.448 3 4V7C3 7.384 2.856 7.735 2.618 8C2.856 8.265 3 8.616 3 9V12C3 12.552 3.448 13 4 13C4.276 13 4.5 13.224 4.5 13.5ZM14.5 7.5C14.224 7.5 14 7.276 14 7V4C14 2.895 13.105 2 12 2C11.724 2 11.5 2.224 11.5 2.5C11.5 2.776 11.724 3 12 3C12.552 3 13 3.448 13 4V7C13 7.384 13.144 7.735 13.382 8C13.145 8.265 13 8.616 13 9V12C13 12.552 12.552 13 12 13C11.724 13 11.5 13.224 11.5 13.5C11.5 13.776 11.724 14 12 14C13.105 14 14 13.105 14 12V9C14 8.724 14.224 8.5 14.5 8.5C14.776 8.5 15 8.276 15 8C15 7.724 14.776 7.5 14.5 7.5ZM12 8C12 10.209 10.209 12 8 12C5.791 12 4 10.209 4 8C4 5.791 5.791 4 8 4C10.209 4 12 5.791 12 8ZM11 8C11 6.346 9.654 5 8 5C6.346 5 5 6.346 5 8C5 9.654 6.346 11 8 11C9.654 11 11 9.654 11 8ZM9.146 6.646L7.5 8.292L6.854 7.646C6.659 7.451 6.342 7.451 6.147 7.646C5.952 7.841 5.952 8.158 6.147 8.353L7.147 9.353C7.241 9.447 7.368 9.499 7.501 9.499C7.634 9.499 7.761 9.446 7.855 9.353L9.855 7.353C10.05 7.158 10.05 6.841 9.855 6.646C9.66 6.451 9.343 6.451 9.148 6.646H9.146Z" fill="#212121"/>
</svg>
